X: 251
T:Fly-Flappers,The. JaW.250
M:2/4
Q:80
S:James Winder Ms, Lancashire, 1835-41
R:Quadrille
O:England
A:Wyresdale,Lancashire
H:1/8
Z:vmp.Chris Partington, Aug 2004
K:D
dzdz|fddd|ezez|geee|!
fagf|edcd|ezcz|1dDFA:|2d2za||!
Azaz|Azgz|Azfz|ecAc|!
dzdz|befg|fdec|1dafd:|2dDFA|]
